app/client/src/assets/icons/blueprintjs/16px/code.svg

<svg xmlns="http://www.w3.org/2000/svg" xml:space="preserve" viewBox="0 0 16 16"><path fill-rule="evenodd" d="m15.71 7.29-3-3a1.003 1.003 0 0 0-1.42 1.42L13.59 8l-2.29 2.29c-.19.18-.3.43-.3.71a1.003 1.003 0 0 0 1.71.71l3-3c.18-.18.29-.43.29-.71 0-.28-.11-.53-.29-.71zM5 5a1.003 1.003 0 0 0-1.71-.71l-3 3C.11 7.47 0 7.72 0 8c0 .28.11.53.29.71l3 3a1.003 1.003 0 0 0 1.42-1.42L2.41 8 4.7 5.71c.19-.18.3-.43.3-.71zm4-3c-.48 0-.87.35-.96.81l-2 10c-.01.06-.04.12-.04.19 0 .55.45 1 1 1 .48 0 .87-.35.96-.81l2-10c.01-.06.04-.12.04-.19 0-.55-.45-1-1-1z" clip-rule="evenodd"/></svg>

<?xml version="1.0" encoding="utf-8"?>
<!-- Generator: Adobe Illustrator 17.1.0, SVG Export Plug-In . SVG Version: 6.00 Build 0)  -->
<!DOCTYPE svg PUBLIC "-//W3C//DTD SVG 1.1//EN" "http://www.w3.org/Graphics/SVG/1.1/DTD/svg11.dtd">
<svg version="1.1" id="Layer_1" xmlns="http://www.w3.org/2000/svg" xmlns:xlink="http://www.w3.org/1999/xlink" x="0px" y="0px"
	 viewBox="0 0 16 16" enable-background="new 0 0 16 16" xml:space="preserve">
<g id="code_2_">
	<g>
		<path fill-rule="evenodd" clip-rule="evenodd" d="M15.71,7.29l-3-3C12.53,4.11,12.28,4,12,4c-0.55,0-1,0.45-1,1
			c0,0.28,0.11,0.53,0.29,0.71L13.59,8l-2.29,2.29C11.11,10.47,11,10.72,11,11c0,0.55,0.45,1,1,1c0.28,0,0.53-0.11,0.71-0.29l3-3
			C15.89,8.53,16,8.28,16,8C16,7.72,15.89,7.47,15.71,7.29z M5,5c0-0.55-0.45-1-1-1C3.72,4,3.47,4.11,3.29,4.29l-3,3
			C0.11,7.47,0,7.72,0,8c0,0.28,0.11,0.53,0.29,0.71l3,3C3.47,11.89,3.72,12,4,12c0.55,0,1-0.45,1-1c0-0.28-0.11-0.53-0.29-0.71
			L2.41,8l2.29-2.29C4.89,5.53,5,5.28,5,5z M9,2C8.52,2,8.13,2.35,8.04,2.81l-2,10C6.03,12.87,6,12.93,6,13c0,0.55,0.45,1,1,1
			c0.48,0,0.87-0.35,0.96-0.81l2-10C9.97,3.13,10,3.07,10,3C10,2.45,9.55,2,9,2z"/>
	</g>
</g>
</svg>
